X: 1
T: Jack's Alive
R: jig
Z: 2009 John Chambers <jc:trillian.mit.edu>
S: handwritten MS of unknown origin (B.McO.?)
M: 6/8
L: 1/8
K: G
D \
| "G"GAG B3 | "Am"ABA "D7"c3 | "G"BdB "D7"c2A | "G"B2G "D7"AFD \
| "G"GAG "Em"B3 | "Am"ABA "D7"c3 | "G"B{c}dB "D7"cAF | "G"G3 G2 :|
f \
| "G"g2g gag | "D"f2f fgf | "C"e2e efg | "D7"a2g fed \
| "G"g2g gag | "D"f2f fgf | "C"efg "D7"afd | "G"G3 G2 |]
d \
| "G"gag gag | "D"fgf fgf | "C"efe "Am"efg | "D7"a2g fed \
| "G"g3 Bcd | "C"e3 "Am"ABc | "G"dBG "D7"cAF | "G"G3 G2 |]
